symbols/be/PVR-{50}.svg

<?xml version="1.0" encoding="UTF-8" standalone="no"?>
<!-- Initially created with Inkscape, optimized by hand -->

<svg
   version="1.1"
   width="20"
   height="17.320999"
   id="svg1"
   xmlns="http://www.w3.org/2000/svg"
   xmlns:svg="http://www.w3.org/2000/svg">
  <defs
     id="defs1" />
  <path
     id="Fond"
     d="M 20,17.320999 H 0 L 10,-1.2114258e-6 Z"
     fill="#0b9b7b"
     style="stroke-width:0.1" />
  <path
     style="font-size:10.6667px;font-family:Isonorm;-inkscape-font-specification:'Isonorm, Normal';fill:#ffffff;fill-rule:evenodd;stroke-width:0.377953;stroke-linejoin:bevel"
     d="m 11.78667,8.7411348 c 0,-0.202667 -0.16,-0.362667 -0.352,-0.362667 H 8.586658 c -0.096,0 -0.170667,0.02133 -0.234667,0.08533 -0.08533,0.08533 -0.117334,0.160001 -0.117334,0.277334 v 2.8373432 c 0,0.117333 0.032,0.192 0.117334,0.277334 0.064,0.064 0.138667,0.08533 0.234667,0.08533 h 1.408005 c 0.298667,0 0.501337,0.064 0.725337,0.266668 0.24533,0.224001 0.34133,0.458668 0.34133,0.800002 v 0.704003 c 0,0.309334 -0.064,0.512001 -0.27733,0.746669 -0.18134,0.192 -0.45867,0.320001 -0.789337,0.320001 H 8.565325 c -0.192001,0 -0.352001,0.170667 -0.352001,0.362668 0,0.192 0.16,0.352001 0.352001,0.352001 h 1.429338 c 0.554667,0 1.045337,-0.224001 1.333337,-0.565335 0.30933,-0.341335 0.43734,-0.704003 0.43734,-1.216004 v -0.704003 c 0,-0.597335 -0.26667,-1.109336 -0.61867,-1.397337 C 10.848,11.365144 10.304,11.226476 9.994663,11.226476 H 8.949326 V 9.0931358 h 2.485344 c 0.192,0 0.352,-0.138667 0.352,-0.352001 z"
     id="text1"
     aria-label="5" />
</svg>

<?xml version="1.0" encoding="UTF-8"?>
<svg xmlns="http://www.w3.org/2000/svg" xmlns:xlink="http://www.w3.org/1999/xlink" width="20" height="17.320999" viewBox="0 0 20 17.320999">
<path fill-rule="nonzero" fill="rgb(4.313725%, 60.784314%, 48.235294%)" fill-opacity="1" d="M 20 17.320312 L 0 17.320312 L 10 0 Z M 20 17.320312 "/>
<path fill-rule="evenodd" fill="rgb(100%, 100%, 100%)" fill-opacity="1" d="M 11.785156 8.742188 C 11.785156 8.539062 11.625 8.378906 11.433594 8.378906 L 8.585938 8.378906 C 8.492188 8.378906 8.414062 8.398438 8.351562 8.464844 C 8.265625 8.550781 8.234375 8.625 8.234375 8.742188 L 8.234375 11.578125 C 8.234375 11.695312 8.265625 11.769531 8.351562 11.855469 C 8.414062 11.917969 8.492188 11.941406 8.585938 11.941406 L 9.996094 11.941406 C 10.292969 11.941406 10.496094 12.003906 10.71875 12.207031 C 10.964844 12.433594 11.0625 12.667969 11.0625 13.007812 L 11.0625 13.710938 C 11.0625 14.019531 10.996094 14.222656 10.785156 14.457031 C 10.601562 14.652344 10.324219 14.777344 9.996094 14.777344 L 8.566406 14.777344 C 8.375 14.777344 8.214844 14.949219 8.214844 15.140625 C 8.214844 15.332031 8.375 15.492188 8.566406 15.492188 L 9.996094 15.492188 C 10.550781 15.492188 11.039062 15.269531 11.328125 14.929688 C 11.636719 14.585938 11.765625 14.222656 11.765625 13.710938 L 11.765625 13.007812 C 11.765625 12.410156 11.5 11.898438 11.148438 11.609375 C 10.847656 11.363281 10.304688 11.226562 9.996094 11.226562 L 8.949219 11.226562 L 8.949219 9.09375 L 11.433594 9.09375 C 11.625 9.09375 11.785156 8.953125 11.785156 8.742188 Z M 11.785156 8.742188 "/>
</svg>
